icons/io.svg

<?xml version="1.0" ?>
<svg xmlns="http://www.w3.org/2000/svg" xmlns:ev="http://www.w3.org/2001/xml-events" xmlns:xlink="http://www.w3.org/1999/xlink" baseProfile="full" height="600px" version="1.1" viewBox="1335.5919431334448 -1027.3648178529038 7561.713800022913 12294.128346654548" width="370px">
	<defs/>
	<path d="M 4980.0,10226.0 C 4921.0,10213.0 4870.0,10190.0 4853.0,10168.0 C 4847.0,10161.0 4840.0,10140.0 4837.0,10123.0 L 4831.0,10090.0 L 4888.0,10095.0 C 4919.0,10097.0 4979.0,10102.0 5021.0,10104.0 C 5062.0,10107.0 5120.0,10114.0 5148.0,10121.0 C 5198.0,10131.0 5200.0,10133.0 5200.0,10165.0 C 5200.0,10197.0 5197.0,10199.0 5138.0,10219.0 C 5068.0,10243.0 5057.0,10243.0 4980.0,10226.0" fill="pink"/>
	<path d="M 4355.0,10171.0 C 4290.0,10160.0 4252.0,10132.0 4003.0,9914.0 C 3930.0,9850.0 3917.0,9816.0 3949.0,9771.0 L 3970.0,9741.0 L 4048.0,9797.0 C 4093.0,9829.0 4132.0,9866.0 4143.0,9886.0 C 4155.0,9909.0 4167.0,9920.0 4183.0,9920.0 C 4212.0,9920.0 4352.0,10005.0 4407.0,10057.0 L 4449.0,10095.0 L 4430.0,10138.0 C 4419.0,10161.0 4407.0,10179.0 4403.0,10179.0 C 4399.0,10178.0 4377.0,10175.0 4355.0,10171.0" fill="pink"/>
	<path d="M 5744.0,10046.0 C 5718.0,10035.0 5712.0,10025.0 5706.0,9989.0 C 5698.0,9940.0 5698.0,9687.0 5706.0,9666.0 C 5719.0,9633.0 5785.0,9602.0 5855.0,9595.0 C 5894.0,9591.0 5971.0,9577.0 6027.0,9563.0 L 6129.0,9538.0 L 6225.0,9434.0 L 6321.0,9330.0 L 6335.0,9213.0 C 6343.0,9148.0 6350.0,9076.0 6350.0,9053.0 C 6350.0,9014.0 6353.0,9009.0 6416.0,8963.0 C 6479.0,8917.0 6485.0,8909.0 6547.0,8787.0 C 6586.0,8708.0 6628.0,8603.0 6656.0,8514.0 C 6695.0,8388.0 6708.0,8360.0 6758.0,8291.0 C 6811.0,8217.0 6823.0,8207.0 6936.0,8141.0 C 7002.0,8102.0 7095.0,8052.0 7141.0,8029.0 C 7187.0,8006.0 7254.0,7966.0 7290.0,7940.0 C 7327.0,7913.0 7372.0,7889.0 7393.0,7885.0 C 7425.0,7879.0 7439.0,7867.0 7481.0,7811.0 C 7517.0,7764.0 7559.0,7726.0 7628.0,7678.0 C 7681.0,7641.0 7751.0,7584.0 7783.0,7553.0 C 7839.0,7496.0 7841.0,7492.0 7886.0,7350.0 C 7944.0,7164.0 7937.0,7178.0 8012.0,7085.0 L 8077.0,7004.0 L 8085.0,6898.0 C 8090.0,6813.0 8088.0,6766.0 8070.0,6654.0 C 8034.0,6418.0 7999.0,6308.0 7900.0,6110.0 C 7811.0,5932.0 7724.0,5803.0 7529.0,5560.0 C 7487.0,5508.0 7400.0,5389.0 7336.0,5297.0 C 7245.0,5167.0 7205.0,5099.0 7158.0,4993.0 C 7106.0,4875.0 7090.0,4850.0 7040.0,4801.0 C 6989.0,4752.0 6977.0,4733.0 6942.0,4640.0 C 6903.0,4537.0 6902.0,4533.0 6909.0,4441.0 L 6915.0,4346.0 L 6970.0,4313.0 C 7017.0,4285.0 7034.0,4280.0 7091.0,4280.0 L 7157.0,4280.0 L 7242.0,4188.0 C 7337.0,4084.0 7340.0,4078.0 7365.0,3884.0 C 7379.0,3775.0 7381.0,3771.0 7460.0,3624.0 L 7541.0,3475.0 L 7534.0,3416.0 C 7528.0,3360.0 7530.0,3351.0 7569.0,3271.0 C 7591.0,3224.0 7614.0,3167.0 7620.0,3144.0 C 7629.0,3106.0 7730.0,2971.0 7755.0,2963.0 C 7761.0,2961.0 7774.0,2974.0 7784.0,2991.0 C 7802.0,3022.0 7802.0,3022.0 7770.0,3086.0 C 7752.0,3121.0 7739.0,3153.0 7742.0,3155.0 C 7753.0,3167.0 7804.0,3137.0 7854.0,3090.0 C 7896.0,3050.0 7916.0,3039.0 7952.0,3034.0 C 8024.0,3024.0 8025.0,3023.0 7981.0,2924.0 C 7944.0,2843.0 7939.0,2835.0 7913.0,2835.0 C 7887.0,2835.0 7885.0,2838.0 7882.0,2878.0 C 7880.0,2901.0 7875.0,2920.0 7870.0,2920.0 C 7865.0,2920.0 7847.0,2899.0 7830.0,2874.0 C 7802.0,2835.0 7768.0,2810.0 7741.0,2810.0 C 7736.0,2810.0 7727.0,2823.0 7720.0,2840.0 C 7698.0,2892.0 7655.0,2876.0 7621.0,2803.0 C 7606.0,2770.0 7587.0,2748.0 7565.0,2736.0 C 7547.0,2726.0 7496.0,2683.0 7453.0,2640.0 C 7387.0,2575.0 7368.0,2561.0 7332.0,2555.0 C 7308.0,2551.0 7286.0,2551.0 7283.0,2554.0 C 7275.0,2562.0 7368.0,2663.0 7423.0,2705.0 C 7449.0,2725.0 7470.0,2745.0 7470.0,2750.0 C 7470.0,2754.0 7488.0,2775.0 7510.0,2796.0 C 7532.0,2817.0 7565.0,2864.0 7585.0,2901.0 C 7617.0,2962.0 7619.0,2971.0 7608.0,3001.0 C 7602.0,3020.0 7589.0,3045.0 7580.0,3057.0 C 7564.0,3078.0 7562.0,3078.0 7547.0,3062.0 C 7538.0,3053.0 7518.0,3017.0 7502.0,2983.0 C 7472.0,2920.0 7374.0,2780.0 7360.0,2780.0 C 7355.0,2780.0 7302.0,2733.0 7242.0,2675.0 C 7121.0,2560.0 7100.0,2522.0 7100.0,2428.0 C 7100.0,2383.0 7094.0,2371.0 7043.0,2304.0 C 6989.0,2235.0 6983.0,2230.0 6947.0,2230.0 C 6903.0,2230.0 6899.0,2220.0 6992.0,2353.0 C 7058.0,2446.0 7061.0,2452.0 7058.0,2501.0 L 7055.0,2552.0 L 6965.0,2471.0 C 6888.0,2402.0 6870.0,2390.0 6839.0,2390.0 C 6815.0,2390.0 6797.0,2383.0 6784.0,2369.0 C 6736.0,2315.0 6614.0,2226.0 6557.0,2204.0 C 6523.0,2190.0 6463.0,2163.0 6424.0,2143.0 L 6353.0,2107.0 L 6310.0,1961.0 C 6286.0,1878.0 6253.0,1791.0 6235.0,1760.0 C 6217.0,1730.0 6190.0,1671.0 6175.0,1630.0 C 6150.0,1558.0 6144.0,1550.0 6064.0,1481.0 C 6017.0,1441.0 5971.0,1391.0 5960.0,1370.0 C 5940.0,1331.0 5897.0,1168.0 5860.0,990.0 C 5848.0,932.0 5821.0,827.0 5799.0,755.0 C 5761.0,628.0 5761.0,624.0 5775.0,576.0 C 5791.0,524.0 5794.0,480.0 5784.0,443.0 C 5779.0,424.0 5771.0,420.0 5739.0,420.0 C 5707.0,420.0 5700.0,417.0 5700.0,400.0 C 5700.0,382.0 5697.0,381.0 5680.0,392.0 C 5663.0,403.0 5661.0,412.0 5666.0,460.0 C 5670.0,490.0 5679.0,525.0 5686.0,537.0 C 5694.0,549.0 5700.0,573.0 5700.0,590.0 C 5700.0,626.0 5680.0,629.0 5625.0,603.0 L 5590.0,586.0 L 5590.0,450.0 L 5590.0,314.0 L 5559.0,284.0 C 5542.0,268.0 5520.0,239.0 5510.0,220.0 C 5488.0,180.0 5488.0,181.0 5490.0,305.0 C 5491.0,363.0 5496.0,393.0 5510.0,415.0 C 5526.0,442.0 5527.0,449.0 5515.0,477.0 L 5501.0,510.0 L 5458.0,491.0 C 5427.0,478.0 5408.0,461.0 5387.0,426.0 L 5360.0,378.0 L 5381.0,340.0 C 5400.0,307.0 5401.0,298.0 5390.0,266.0 C 5383.0,245.0 5381.0,213.0 5384.0,194.0 C 5389.0,168.0 5388.0,160.0 5376.0,160.0 C 5368.0,160.0 5358.0,170.0 5355.0,181.0 C 5349.0,198.0 5346.0,200.0 5339.0,189.0 C 5334.0,181.0 5330.0,165.0 5330.0,153.0 C 5330.0,138.0 5320.0,125.0 5301.0,116.0 C 5269.0,99.0 5260.0,103.0 5260.0,137.0 C 5260.0,166.0 5232.0,167.0 5173.0,140.0 L 5130.0,121.0 L 5130.0,161.0 C 5130.0,194.0 5136.0,208.0 5161.0,231.0 C 5189.0,257.0 5191.0,263.0 5181.0,291.0 C 5173.0,315.0 5174.0,328.0 5187.0,353.0 L 5203.0,385.0 L 5218.0,352.0 C 5227.0,335.0 5237.0,320.0 5241.0,320.0 C 5249.0,320.0 5260.0,357.0 5260.0,388.0 C 5260.0,407.0 5265.0,410.0 5305.0,410.0 C 5358.0,410.0 5363.0,425.0 5327.0,474.0 C 5220.0,616.0 5205.0,725.0 5235.0,1145.0 C 5243.0,1261.0 5254.0,1371.0 5258.0,1390.0 C 5270.0,1449.0 5263.0,1631.0 5247.0,1670.0 C 5222.0,1730.0 5218.0,1793.0 5234.0,1877.0 C 5242.0,1920.0 5254.0,2020.0 5260.0,2100.0 C 5266.0,2180.0 5276.0,2267.0 5281.0,2294.0 C 5286.0,2321.0 5290.0,2383.0 5290.0,2431.0 C 5290.0,2496.0 5295.0,2534.0 5310.0,2572.0 C 5325.0,2611.0 5330.0,2649.0 5330.0,2718.0 C 5330.0,2781.0 5337.0,2839.0 5351.0,2893.0 C 5364.0,2941.0 5372.0,3001.0 5371.0,3039.0 C 5369.0,3096.0 5373.0,3107.0 5398.0,3139.0 C 5440.0,3192.0 5439.0,3189.0 5450.0,3296.0 C 5456.0,3351.0 5468.0,3432.0 5477.0,3477.0 C 5492.0,3556.0 5492.0,3564.0 5472.0,3662.0 C 5461.0,3719.0 5449.0,3824.0 5445.0,3895.0 C 5436.0,4081.0 5424.0,4189.0 5395.0,4331.0 C 5381.0,4399.0 5370.0,4483.0 5370.0,4517.0 C 5370.0,4576.0 5371.0,4579.0 5398.0,4585.0 C 5461.0,4598.0 5510.0,4745.0 5510.0,4921.0 C 5510.0,5021.0 5506.0,5047.0 5485.0,5105.0 C 5471.0,5142.0 5441.0,5199.0 5418.0,5232.0 C 5367.0,5308.0 5340.0,5427.0 5316.0,5675.0 C 5307.0,5769.0 5297.0,5873.0 5294.0,5908.0 C 5286.0,5988.0 5261.0,6021.0 5193.0,6038.0 C 5165.0,6045.0 5114.0,6071.0 5078.0,6094.0 C 4951.0,6180.0 4841.0,6213.0 4745.0,6195.0 C 4706.0,6187.0 4615.0,6219.0 4525.0,6272.0 C 4237.0,6441.0 4106.0,6554.0 3992.0,6730.0 C 3820.0,6993.0 3637.0,7189.0 3528.0,7226.0 C 3494.0,7237.0 3480.0,7247.0 3480.0,7260.0 C 3480.0,7285.0 3385.0,7361.0 3328.0,7383.0 C 3287.0,7399.0 3280.0,7407.0 3249.0,7473.0 C 3219.0,7537.0 3211.0,7546.0 3179.0,7554.0 C 3152.0,7561.0 3136.0,7575.0 3107.0,7619.0 C 3086.0,7650.0 3056.0,7691.0 3040.0,7710.0 C 3024.0,7729.0 2984.0,7794.0 2952.0,7854.0 L 2894.0,7963.0 L 2907.0,8043.0 C 2929.0,8186.0 2958.0,8246.0 3049.0,8344.0 C 3144.0,8446.0 3196.0,8528.0 3209.0,8594.0 C 3233.0,8721.0 3215.0,8786.0 3167.0,8743.0 C 3135.0,8714.0 3115.0,8710.0 2921.0,8700.0 L 2748.0,8691.0 L 2671.0,8617.0 C 2592.0,8540.0 2566.0,8524.0 2437.0,8470.0 C 2386.0,8449.0 2326.0,8412.0 2264.0,8363.0 C 2211.0,8322.0 2156.0,8281.0 2140.0,8271.0 C 2124.0,8262.0 2080.0,8224.0 2041.0,8188.0 C 1974.0,8125.0 1970.0,8119.0 1970.0,8078.0 C 1970.0,8047.0 1981.0,8016.0 2009.0,7967.0 C 2043.0,7906.0 2058.0,7891.0 2156.0,7822.0 L 2265.0,7744.0 L 2292.0,7645.0 C 2318.0,7548.0 2320.0,7544.0 2377.0,7492.0 C 2448.0,7428.0 2628.0,7303.0 2809.0,7193.0 L 2944.0,7110.0 L 3039.0,6988.0 C 3202.0,6776.0 3298.0,6670.0 3489.0,6490.0 C 3780.0,6216.0 3817.0,6187.0 3948.0,6121.0 C 4012.0,6089.0 4090.0,6057.0 4120.0,6051.0 C 4225.0,6029.0 4339.0,5989.0 4482.0,5926.0 C 4561.0,5891.0 4643.0,5857.0 4665.0,5850.0 C 4738.0,5826.0 4864.0,5759.0 4954.0,5697.0 L 5043.0,5635.0 L 5147.0,5456.0 C 5242.0,5293.0 5253.0,5271.0 5264.0,5200.0 C 5274.0,5136.0 5282.0,5115.0 5308.0,5086.0 C 5339.0,5050.0 5340.0,5047.0 5340.0,4956.0 C 5340.0,4905.0 5335.0,4825.0 5329.0,4779.0 C 5318.0,4700.0 5315.0,4692.0 5270.0,4640.0 C 5226.0,4589.0 5222.0,4580.0 5216.0,4515.0 C 5213.0,4477.0 5202.0,4396.0 5194.0,4335.0 L 5177.0,4225.0 L 5209.0,4068.0 C 5227.0,3982.0 5258.0,3860.0 5279.0,3797.0 C 5317.0,3685.0 5318.0,3680.0 5310.0,3589.0 C 5302.0,3494.0 5252.0,3273.0 5181.0,3015.0 C 5144.0,2883.0 5141.0,2863.0 5134.0,2680.0 C 5129.0,2573.0 5127.0,2397.0 5128.0,2290.0 C 5130.0,2172.0 5127.0,2081.0 5120.0,2060.0 C 5115.0,2041.0 5103.0,1969.0 5094.0,1901.0 C 5079.0,1779.0 5079.0,1772.0 5105.0,1567.0 C 5126.0,1401.0 5131.0,1329.0 5127.0,1226.0 C 5119.0,995.0 5081.0,642.0 5037.0,382.0 L 4994.0,128.0 L 5085.0,75.0 C 5192.0,12.0 5270.0,-6.0 5388.0,4.0 C 5474.0,11.0 5481.0,15.0 5546.0,106.0 C 5580.0,154.0 5597.0,170.0 5622.0,175.0 C 5685.0,188.0 5749.0,231.0 5781.0,281.0 C 5822.0,346.0 5890.0,400.0 5929.0,400.0 C 5955.0,400.0 5962.0,406.0 5975.0,436.0 C 5983.0,456.0 5995.0,502.0 6001.0,538.0 C 6011.0,596.0 6018.0,611.0 6056.0,650.0 C 6095.0,691.0 6099.0,699.0 6094.0,731.0 C 6089.0,758.0 6097.0,795.0 6123.0,871.0 C 6142.0,928.0 6172.0,1027.0 6190.0,1090.0 C 6225.0,1219.0 6232.0,1231.0 6381.0,1425.0 C 6467.0,1537.0 6516.0,1590.0 6628.0,1689.0 C 6725.0,1774.0 6771.0,1821.0 6775.0,1839.0 C 6786.0,1891.0 6838.0,1939.0 6924.0,1979.0 C 7013.0,2020.0 7059.0,2057.0 7321.0,2296.0 C 7538.0,2494.0 7574.0,2517.0 7731.0,2563.0 C 7832.0,2592.0 7888.0,2616.0 8006.0,2681.0 C 8095.0,2729.0 8175.0,2781.0 8203.0,2809.0 L 8252.0,2855.0 L 8245.0,2925.0 C 8221.0,3177.0 8193.0,3221.0 7791.0,3629.0 L 7667.0,3755.0 L 7580.0,3928.0 C 7518.0,4049.0 7487.0,4123.0 7475.0,4176.0 C 7466.0,4218.0 7450.0,4277.0 7439.0,4308.0 C 7427.0,4342.0 7420.0,4390.0 7420.0,4436.0 C 7420.0,4484.0 7414.0,4526.0 7401.0,4557.0 C 7375.0,4623.0 7383.0,4743.0 7418.0,4820.0 C 7432.0,4850.0 7446.0,4901.0 7450.0,4934.0 C 7456.0,4975.0 7467.0,5005.0 7489.0,5035.0 C 7510.0,5064.0 7520.0,5090.0 7520.0,5113.0 C 7520.0,5144.0 7533.0,5162.0 7639.0,5272.0 C 7704.0,5339.0 7767.0,5415.0 7780.0,5440.0 C 7815.0,5509.0 7962.0,5708.0 7987.0,5719.0 C 8000.0,5725.0 8027.0,5756.0 8047.0,5787.0 C 8083.0,5842.0 8085.0,5849.0 8087.0,5935.0 L 8089.0,6024.0 L 8130.0,6048.0 C 8181.0,6078.0 8207.0,6128.0 8220.0,6217.0 C 8225.0,6254.0 8238.0,6310.0 8249.0,6342.0 C 8265.0,6388.0 8266.0,6406.0 8258.0,6442.0 C 8253.0,6465.0 8251.0,6519.0 8255.0,6560.0 C 8266.0,6690.0 8260.0,6850.0 8244.0,6883.0 C 8233.0,6904.0 8230.0,6926.0 8235.0,6960.0 C 8241.0,7002.0 8237.0,7016.0 8205.0,7081.0 C 8155.0,7179.0 8073.0,7288.0 8023.0,7323.0 C 8000.0,7339.0 7979.0,7362.0 7976.0,7374.0 C 7973.0,7387.0 7953.0,7424.0 7932.0,7456.0 C 7911.0,7489.0 7878.0,7541.0 7859.0,7573.0 C 7839.0,7608.0 7803.0,7648.0 7769.0,7675.0 C 7737.0,7700.0 7692.0,7748.0 7667.0,7783.0 C 7642.0,7818.0 7601.0,7863.0 7576.0,7884.0 C 7545.0,7909.0 7517.0,7946.0 7488.0,8003.0 C 7459.0,8058.0 7419.0,8112.0 7365.0,8170.0 C 7321.0,8217.0 7273.0,8269.0 7259.0,8287.0 C 7222.0,8332.0 7058.0,8437.0 6997.0,8455.0 C 6968.0,8464.0 6923.0,8474.0 6895.0,8477.0 C 6856.0,8482.0 6835.0,8492.0 6801.0,8522.0 C 6777.0,8543.0 6753.0,8560.0 6749.0,8560.0 C 6744.0,8560.0 6740.0,8573.0 6740.0,8588.0 C 6740.0,8623.0 6554.0,9091.0 6467.0,9272.0 C 6428.0,9355.0 6394.0,9412.0 6381.0,9419.0 C 6364.0,9428.0 6360.0,9440.0 6360.0,9478.0 C 6360.0,9519.0 6354.0,9533.0 6315.0,9582.0 C 6286.0,9618.0 6248.0,9651.0 6212.0,9671.0 C 6181.0,9689.0 6124.0,9733.0 6085.0,9769.0 C 6047.0,9805.0 5968.0,9870.0 5912.0,9913.0 C 5840.0,9968.0 5804.0,10002.0 5794.0,10026.0 C 5786.0,10045.0 5779.0,10060.0 5777.0,10060.0 C 5776.0,10059.0 5761.0,10053.0 5744.0,10046.0" fill="pink"/>
</svg>

<?xml version="1.0" standalone="no"?>
<!DOCTYPE svg PUBLIC "-//W3C//DTD SVG 20010904//EN"
 "http://www.w3.org/TR/2001/REC-SVG-20010904/DTD/svg10.dtd">
<svg version="1.0" xmlns="http://www.w3.org/2000/svg"
 width="1024.000000pt" height="1024.000000pt" viewBox="0 0 1024.000000 1024.000000"
 preserveAspectRatio="xMidYMid meet">
<metadata>
Created by potrace 1.10, written by Peter Selinger 2001-2011
</metadata>
<g transform="translate(0.000000,1024.000000) scale(0.100000,-0.100000)"
fill="#000000" stroke="none">
<path d="M4980 10226 c-59 -13 -110 -36 -127 -58 -6 -7 -13 -28 -16 -45 l-6
-33 57 5 c31 2 91 7 133 9 41 3 99 10 127 17 50 10 52 12 52 44 0 32 -3 34
-62 54 -70 24 -81 24 -158 7z"/>
<path d="M4355 10171 c-65 -11 -103 -39 -352 -257 -73 -64 -86 -98 -54 -143
l21 -30 78 56 c45 32 84 69 95 89 12 23 24 34 40 34 29 0 169 85 224 137 l42
38 -19 43 c-11 23 -23 41 -27 41 -4 -1 -26 -4 -48 -8z"/>
<path d="M5744 10046 c-26 -11 -32 -21 -38 -57 -8 -49 -8 -302 0 -323 13 -33
79 -64 149 -71 39 -4 116 -18 172 -32 l102 -25 96 -104 96 -104 14 -117 c8
-65 15 -137 15 -160 0 -39 3 -44 66 -90 63 -46 69 -54 131 -176 39 -79 81
-184 109 -273 39 -126 52 -154 102 -223 53 -74 65 -84 178 -150 66 -39 159
-89 205 -112 46 -23 113 -63 149 -89 37 -27 82 -51 103 -55 32 -6 46 -18 88
-74 36 -47 78 -85 147 -133 53 -37 123 -94 155 -125 56 -57 58 -61 103 -203
58 -186 51 -172 126 -265 l65 -81 8 -106 c5 -85 3 -132 -15 -244 -36 -236 -71
-346 -170 -544 -89 -178 -176 -307 -371 -550 -42 -52 -129 -171 -193 -263 -91
-130 -131 -198 -178 -304 -52 -118 -68 -143 -118 -192 -51 -49 -63 -68 -98
-161 -39 -103 -40 -107 -33 -199 l6 -95 55 -33 c47 -28 64 -33 121 -33 l66 0
85 -92 c95 -104 98 -110 123 -304 14 -109 16 -113 95 -260 l81 -149 -7 -59
c-6 -56 -4 -65 35 -145 22 -47 45 -104 51 -127 9 -38 110 -173 135 -181 6 -2
19 11 29 28 18 31 18 31 -14 95 -18 35 -31 67 -28 69 11 12 62 -18 112 -65 42
-40 62 -51 98 -56 72 -10 73 -11 29 -110 -37 -81 -42 -89 -68 -89 -26 0 -28 3
-31 43 -2 23 -7 42 -12 42 -5 0 -23 -21 -40 -46 -28 -39 -62 -64 -89 -64 -5 0
-14 13 -21 30 -22 52 -65 36 -99 -37 -15 -33 -34 -55 -56 -67 -18 -10 -69 -53
-112 -96 -66 -65 -85 -79 -121 -85 -24 -4 -46 -4 -49 -1 -8 8 85 109 140 151
26 20 47 40 47 45 0 4 18 25 40 46 22 21 55 68 75 105 32 61 34 70 23 100 -6
19 -19 44 -28 56 -16 21 -18 21 -33 5 -9 -9 -29 -45 -45 -79 -30 -63 -128
-203 -142 -203 -5 0 -58 -47 -118 -105 -121 -115 -142 -153 -142 -247 0 -45
-6 -57 -57 -124 -54 -69 -60 -74 -96 -74 -44 0 -48 -10 45 123 66 93 69 99 66
148 l-3 51 -90 -81 c-77 -69 -95 -81 -126 -81 -24 0 -42 -7 -55 -21 -48 -54
-170 -143 -227 -165 -34 -14 -94 -41 -133 -61 l-71 -36 -43 -146 c-24 -83 -57
-170 -75 -201 -18 -30 -45 -89 -60 -130 -25 -72 -31 -80 -111 -149 -47 -40
-93 -90 -104 -111 -20 -39 -63 -202 -100 -380 -12 -58 -39 -163 -61 -235 -38
-127 -38 -131 -24 -179 16 -52 19 -96 9 -133 -5 -19 -13 -23 -45 -23 -32 0
-39 -3 -39 -20 0 -18 -3 -19 -20 -8 -17 11 -19 20 -14 68 4 30 13 65 20 77 8
12 14 36 14 53 0 36 -20 39 -75 13 l-35 -17 0 -136 0 -136 -31 -30 c-17 -16
-39 -45 -49 -64 -22 -40 -22 -39 -20 85 1 58 6 88 20 110 16 27 17 34 5 62
l-14 33 -43 -19 c-31 -13 -50 -30 -71 -65 l-27 -48 21 -38 c19 -33 20 -42 9
-74 -7 -21 -9 -53 -6 -72 5 -26 4 -34 -8 -34 -8 0 -18 10 -21 21 -6 17 -9 19
-16 8 -5 -8 -9 -24 -9 -36 0 -15 -10 -28 -29 -37 -32 -17 -41 -13 -41 21 0 29
-28 30 -87 3 l-43 -19 0 40 c0 33 6 47 31 70 28 26 30 32 20 60 -8 24 -7 37 6
62 l16 32 15 -33 c9 -17 19 -32 23 -32 8 0 19 37 19 68 0 19 5 22 45 22 53 0
58 15 22 64 -107 142 -122 251 -92 671 8 116 19 226 23 245 12 59 5 241 -11
280 -25 60 -29 123 -13 207 8 43 20 143 26 223 6 80 16 167 21 194 5 27 9 89
9 137 0 65 5 103 20 141 15 39 20 77 20 146 0 63 7 121 21 175 13 48 21 108
20 146 -2 57 2 68 27 100 42 53 41 50 52 157 6 55 18 136 27 181 15 79 15 87
-5 185 -11 57 -23 162 -27 233 -9 186 -21 294 -50 436 -14 68 -25 152 -25 186
0 59 1 62 28 68 63 13 112 160 112 336 0 100 -4 126 -25 184 -14 37 -44 94
-67 127 -51 76 -78 195 -102 443 -9 94 -19 198 -22 233 -8 80 -33 113 -101
130 -28 7 -79 33 -115 56 -127 86 -237 119 -333 101 -39 -8 -130 24 -220 77
-288 169 -419 282 -533 458 -172 263 -355 459 -464 496 -34 11 -48 21 -48 34
0 25 -95 101 -152 123 -41 16 -48 24 -79 90 -30 64 -38 73 -70 81 -27 7 -43
21 -72 65 -21 31 -51 72 -67 91 -16 19 -56 84 -88 144 l-58 109 13 80 c22 143
51 203 142 301 95 102 147 184 160 250 24 127 6 192 -42 149 -32 -29 -52 -33
-246 -43 l-173 -9 -77 -74 c-79 -77 -105 -93 -234 -147 -51 -21 -111 -58 -173
-107 -53 -41 -108 -82 -124 -92 -16 -9 -60 -47 -99 -83 -67 -63 -71 -69 -71
-110 0 -31 11 -62 39 -111 34 -61 49 -76 147 -145 l109 -78 27 -99 c26 -97 28
-101 85 -153 71 -64 251 -189 432 -299 l135 -83 95 -122 c163 -212 259 -318
450 -498 291 -274 328 -303 459 -369 64 -32 142 -64 172 -70 105 -22 219 -62
362 -125 79 -35 161 -69 183 -76 73 -24 199 -91 289 -153 l89 -62 104 -179
c95 -163 106 -185 117 -256 10 -64 18 -85 44 -114 31 -36 32 -39 32 -130 0
-51 -5 -131 -11 -177 -11 -79 -14 -87 -59 -139 -44 -51 -48 -60 -54 -125 -3
-38 -14 -119 -22 -180 l-17 -110 32 -157 c18 -86 49 -208 70 -271 38 -112 39
-117 31 -208 -8 -95 -58 -316 -129 -574 -37 -132 -40 -152 -47 -335 -5 -107
-7 -283 -6 -390 2 -118 -1 -209 -8 -230 -5 -19 -17 -91 -26 -159 -15 -122 -15
-129 11 -334 21 -166 26 -238 22 -341 -8 -231 -46 -584 -90 -844 l-43 -254 91
-53 c107 -63 185 -81 303 -71 86 7 93 11 158 102 34 48 51 64 76 69 63 13 127
56 159 106 41 65 109 119 148 119 26 0 33 6 46 36 8 20 20 66 26 102 10 58 17
73 55 112 39 41 43 49 38 81 -5 27 3 64 29 140 19 57 49 156 67 219 35 129 42
141 191 335 86 112 135 165 247 264 97 85 143 132 147 150 11 52 63 100 149
140 89 41 135 78 397 317 217 198 253 221 410 267 101 29 157 53 275 118 89
48 169 100 197 128 l49 46 -7 70 c-24 252 -52 296 -454 704 l-124 126 -87 173
c-62 121 -93 195 -105 248 -9 42 -25 101 -36 132 -12 34 -19 82 -19 128 0 48
-6 90 -19 121 -26 66 -18 186 17 263 14 30 28 81 32 114 6 41 17 71 39 101 21
29 31 55 31 78 0 31 13 49 119 159 65 67 128 143 141 168 35 69 182 268 207
279 13 6 40 37 60 68 36 55 38 62 40 148 l2 89 41 24 c51 30 77 80 90 169 5
37 18 93 29 125 16 46 17 64 9 100 -5 23 -7 77 -3 118 11 130 5 290 -11 323
-11 21 -14 43 -9 77 6 42 2 56 -30 121 -50 98 -132 207 -182 242 -23 16 -44
39 -47 51 -3 13 -23 50 -44 82 -21 33 -54 85 -73 117 -20 35 -56 75 -90 102
-32 25 -77 73 -102 108 -25 35 -66 80 -91 101 -31 25 -59 62 -88 119 -29 55
-69 109 -123 167 -44 47 -92 99 -106 117 -37 45 -201 150 -262 168 -29 9 -74
19 -102 22 -39 5 -60 15 -94 45 -24 21 -48 38 -52 38 -5 0 -9 13 -9 28 0 35
-186 503 -273 684 -39 83 -73 140 -86 147 -17 9 -21 21 -21 59 0 41 -6 55 -45
104 -29 36 -67 69 -103 89 -31 18 -88 62 -127 98 -38 36 -117 101 -173 144
-72 55 -108 89 -118 113 -8 19 -15 34 -17 34 -1 -1 -16 -7 -33 -14z"/>
</g>
</svg>
